-- crickets + wind
-- crickets + wind + markov 4
-- crickets + wind + markov 4 + 808bd + hh
-- crickets + wind2 + markov 4 + 808bd

-- 808bd + wind3
-- wind4 + drone (sine,saw)
-- bd1 + drone (sine)
-- bd1 + sh + sd + drone (sine) + juno

-- juno 32 + tides 4
-- juno 32 + tides 4 + plaits 4
-- juno 32 + tides 4 + braids 4

-- juno 32 + drone + bd2 + sh + sd
-- juno 32 + drone + bd2 + cp 2 + sd
-- juno 32 + drone + bd2 + cp 2 + sd + lesscrackle

-- nobeigums
-- d7 un d8 no update
