-- juno bass
-- bd2 + sh + hihat + cp
-- make clap much more (jazz)
-- how to do this transition?
-- switch to straight beat + juno + sd + cp16 + sh
-- add drones
-- leave only sineDrone
-- remove sd, make kick centered, make kick red and white
-- do that with snare: # gridsmin (slow 16 $ sine)
-- stop drums, start melody + sparkles
-- add back drums (bd2 + sh + hihat + cp + visco sd)
-- stop sparkles
-- start d8, stop melody, start braids
-- start wind
-- stop braids, start d1
